src/assets/img/svg_sources/icon_twitter.svg

<svg width="30" height="30" viewBox="0 0 30 30" fill="none" xmlns="http://www.w3.org/2000/svg">
<rect width="30" height="30" fill="white"/>
<path fill-rule="evenodd" clip-rule="evenodd" d="M30 15C30 23.2843 23.2843 30 15 30C6.71573 30 0 23.2843 0 15C0 6.71573 6.71573 0 15 0C23.2843 0 30 6.71573 30 15ZM20.3503 10.799C20.9313 10.7296 21.4849 10.5756 22 10.3469C21.615 10.9226 21.1279 11.4284 20.5667 11.8338C20.7487 15.8735 17.7358 20.3774 12.403 20.3774C10.7813 20.3774 9.27108 19.902 8 19.0871C9.52367 19.2668 11.045 18.8438 12.2525 17.8971C10.9948 17.8737 9.93433 17.0436 9.56917 15.9026C10.0195 15.989 10.4622 15.9633 10.8665 15.8536C9.48517 15.5765 8.53142 14.3317 8.56292 13.0011C8.94967 13.2163 9.393 13.3453 9.86317 13.3604C8.5845 12.5053 8.22225 10.8165 8.97475 9.52554C10.3917 11.2633 12.508 12.4067 14.8944 12.5263C14.4756 10.7301 15.8382 8.99995 17.6927 8.99995C18.5187 8.99995 19.2659 9.34879 19.7892 9.90705C20.4437 9.77813 21.0585 9.53896 21.6132 9.20995C21.3992 9.8808 20.9436 10.4437 20.3503 10.799Z" fill="#929191"/>
</svg>

<svg width="30" height="30" viewBox="0 0 30 30" fill="none" xmlns="http://www.w3.org/2000/svg"><path fill="#fff" d="M0 0h30v30H0z"/><path fill-rule="evenodd" clip-rule="evenodd" d="M30 15c0 8.284-6.716 15-15 15-8.284 0-15-6.716-15-15C0 6.716 6.716 0 15 0c8.284 0 15 6.716 15 15zm-9.65-4.201a5.733 5.733 0 0 0 1.65-.452 5.848 5.848 0 0 1-1.433 1.487c.182 4.04-2.831 8.543-8.164 8.543A8.131 8.131 0 0 1 8 19.087a5.775 5.775 0 0 0 4.252-1.19 2.874 2.874 0 0 1-2.683-1.994c.45.086.893.06 1.297-.05-1.38-.277-2.335-1.521-2.303-2.852.387.215.83.344 1.3.36a2.876 2.876 0 0 1-.888-3.835 8.154 8.154 0 0 0 5.92 3 2.875 2.875 0 0 1 4.894-2.619 5.753 5.753 0 0 0 1.824-.697 2.877 2.877 0 0 1-1.263 1.589z" fill="#929191"/></svg>
